static/assets/landing/tidefi-logo.svg

<svg width="95" height="90" viewBox="0 0 95 90" fill="none" xmlns="http://www.w3.org/2000/svg">
<g clip-path="url(#clip0_0_3)">
<path d="M57.0941 16.974C62.2716 16.3464 66.5862 13.993 70.9792 11.7181C74.274 10.0707 77.4903 8.42328 80.8635 6.85434C82.9031 5.91297 85.0212 5.36384 87.2962 5.52074C91.3754 5.83453 94.0426 8.50173 94.0426 12.6594C94.0426 18.2292 91.3754 22.4653 86.6686 25.2894C81.4911 28.4273 76.0782 28.4273 70.587 26.0739C66.1939 24.1912 62.4285 21.2886 58.7414 18.3076C58.2708 17.9938 57.7216 17.5231 57.0941 16.974Z" fill="#7CBFE7"/>
<path fill-rule="evenodd" clip-rule="evenodd" d="M67.2137 40.5868C76.0782 41.3713 83.2954 38.3118 88.7082 30.8593C88.316 31.0162 88.1591 31.0947 88.0022 31.1731C82.9816 33.0559 77.8825 33.4481 72.705 32.2714C67.5275 31.0947 63.056 28.5844 58.8199 25.6818C52.701 21.5242 47.2098 16.582 41.7185 11.6399C38.1099 8.42359 34.3444 5.4425 30.0298 3.16753C25.9505 0.971014 21.6359 -0.205693 16.9291 0.0296487C7.98617 0.578778 0.769039 7.63902 0.0630151 16.582C-0.407667 22.8577 1.78885 28.2706 5.63276 33.1343L6.33878 33.8403C6.49568 30.8593 7.2017 28.1921 9.00598 25.9172C12.8499 21.0535 17.8705 19.8767 23.6756 21.0535C27.5195 21.7595 30.8927 23.7207 34.1875 25.6818C35.0203 26.1866 35.8531 26.6933 36.6865 27.2005C41.0346 29.8463 45.4005 32.5029 49.8769 34.9386C55.2897 37.9196 61.0164 40.0377 67.2137 40.5868ZM53.6424 50.9417C59.2122 50.2357 64.4681 48.6668 69.4887 46.2349C68.8987 46.1588 68.3086 46.0872 67.7196 46.0158C65.8813 45.793 64.054 45.5716 62.2716 45.2151C55.9174 44.0384 50.1908 41.3712 44.6995 38.2333C41.2478 36.2459 37.8658 34.1889 34.4838 32.1318C32.7929 31.1033 31.1019 30.0748 29.4023 29.055C26.9704 27.6429 24.4601 26.5447 21.636 26.074C17.0076 25.368 13.0853 27.486 11.9086 31.4868C10.9672 34.6247 11.987 37.3704 13.8697 39.8807C15.4387 41.9203 17.4783 43.3323 19.6748 44.5875C30.3436 50.3926 41.64 52.5107 53.6424 50.9417Z" fill="white"/>
<path fill-rule="evenodd" clip-rule="evenodd" d="M37.1124 77.9234C37.2167 77.9234 37.3371 77.9073 37.4662 77.8901C37.6152 77.8702 37.7758 77.8488 37.9364 77.8488C38.0862 77.8488 38.236 77.8302 38.3859 77.8116C38.5357 77.7929 38.6855 77.7743 38.8353 77.7743H39.7343H40.5583C41.6071 77.7743 42.506 77.9234 43.2551 78.2216C44.0042 78.5198 44.6035 78.8925 45.053 79.4889C45.5025 80.0107 45.877 80.6816 46.1017 81.3525C46.3265 82.098 46.4014 82.918 46.4014 83.738C46.4014 84.558 46.3265 85.3034 46.1017 86.0489C45.877 86.7944 45.5774 87.4653 45.053 88.0616C44.6035 88.658 43.9293 89.1053 43.1802 89.478C42.4311 89.8507 41.4572 89.9998 40.3336 89.9998H39.5845C39.2848 89.9998 38.9852 89.9998 38.6855 89.9253C38.3859 89.9253 38.0862 89.9253 37.7866 89.8507C37.4869 89.8507 37.2622 89.8507 37.1124 89.7762V77.9234ZM40.783 79.8616H40.0339C39.8092 79.8616 39.5845 79.8616 39.4346 79.9361V87.838H39.6594H40.0339H40.4085H40.6332C41.3074 87.838 41.8318 87.6889 42.2813 87.4653C42.7307 87.2416 43.0304 86.9434 43.33 86.5707C43.6297 86.198 43.7795 85.7507 43.8544 85.2289C43.9293 84.7071 44.0042 84.1852 44.0042 83.6634C44.0042 83.273 43.9471 82.8825 43.8828 82.4424L43.8826 82.4413C43.8733 82.3776 43.8639 82.3129 43.8544 82.2471C43.7795 81.7252 43.6297 81.3525 43.33 80.9798C43.1053 80.607 42.7307 80.3089 42.3562 80.0852C41.9816 79.9361 41.4572 79.8616 40.783 79.8616ZM31.8685 77.9235H29.5463V89.7763H31.8685V77.9235ZM21.7554 80.0115H25.2013H25.2763V77.9242H15.9872V80.0115H19.4332V89.777H21.7554V80.0115ZM58.1624 77.9235H51.1207V89.8509H58.2373V87.7636H53.443V84.8563H57.7129V82.769H53.443V80.0108H58.1624V77.9235ZM62.9568 77.9235H69.9984V80.0108H65.279V82.9181H69.6239V85.0054H65.279V89.7763H62.9568V77.9235ZM77.1149 77.9235H74.7926V89.7763H77.1149V77.9235Z" fill="white"/>
</g>
<defs>
<clipPath id="clip0_0_3">
<rect width="95" height="90" fill="white"/>
</clipPath>
</defs>
</svg>

<svg xmlns="http://www.w3.org/2000/svg" width="95" height="90" fill="none"><g clip-path="url(#a)"><path fill="#7CBFE7" d="M57.094 16.974c5.178-.628 9.492-2.981 13.885-5.256 3.295-1.647 6.511-3.295 9.885-4.864 2.04-.941 4.157-1.49 6.432-1.333 4.08.314 6.747 2.98 6.747 7.138 0 5.57-2.668 9.806-7.374 12.63-5.178 3.138-10.59 3.138-16.082.785-4.393-1.883-8.159-4.785-11.846-7.766-.47-.314-1.02-.785-1.647-1.334Z"/><path fill="#fff" fill-rule="evenodd" d="M67.214 40.587c8.864.784 16.081-2.275 21.494-9.728-.392.157-.549.236-.706.314-5.02 1.883-10.12 2.275-15.297 1.098-5.177-1.176-9.649-3.687-13.885-6.59-6.119-4.157-11.61-9.099-17.102-14.041-3.608-3.216-7.374-6.198-11.688-8.472C25.95.97 21.636-.206 16.93.03 7.985.579.768 7.639.062 16.582c-.47 6.276 1.726 11.689 5.57 16.552l.706.706c.157-2.98.863-5.648 2.667-7.923 3.844-4.864 8.864-6.04 14.67-4.864 3.844.706 7.217 2.668 10.512 4.629.832.505 1.665 1.011 2.498 1.519 4.349 2.645 8.715 5.302 13.19 7.738 5.414 2.98 11.14 5.099 17.338 5.648ZM53.642 50.942a50.64 50.64 0 0 0 15.847-4.707c-.59-.076-1.18-.148-1.77-.22-1.838-.222-3.665-.443-5.447-.8-6.355-1.177-12.081-3.844-17.572-6.982-3.452-1.987-6.834-4.044-10.216-6.101a984.482 984.482 0 0 0-5.082-3.077c-2.432-1.412-4.942-2.51-7.766-2.981-4.628-.706-8.55 1.412-9.727 5.413-.942 3.138.078 5.883 1.96 8.394 1.57 2.04 3.61 3.451 5.806 4.706 10.669 5.806 21.965 7.924 33.967 6.355ZM37.112 77.923c.105 0 .225-.016.354-.033.15-.02.31-.041.47-.041.15 0 .3-.019.45-.037.15-.02.3-.038.45-.038h1.722c1.05 0 1.948.15 2.697.448.75.298 1.348.67 1.798 1.267.45.522.824 1.193 1.049 1.864.225.745.3 1.565.3 2.385 0 .82-.075 1.565-.3 2.31-.225.746-.525 1.417-1.049 2.014-.45.596-1.124 1.043-1.873 1.416-.749.373-1.723.522-2.846.522h-.75c-.3 0-.599 0-.899-.075-.3 0-.599 0-.898-.074-.3 0-.525 0-.675-.075V77.923Zm3.671 1.939h-.75c-.224 0-.449 0-.598.074v7.902h1.198c.674 0 1.199-.15 1.648-.373.45-.223.75-.522 1.049-.894.3-.373.45-.82.524-1.342.075-.522.15-1.044.15-1.566 0-.39-.057-.78-.121-1.22v-.002l-.029-.194c-.075-.522-.224-.894-.524-1.267-.225-.373-.6-.671-.974-.895-.374-.149-.899-.223-1.573-.223Zm-8.915-1.938h-2.322v11.852h2.323V77.924ZM21.756 80.01H25.276v-2.087h-9.289v2.087h3.446v9.766h2.322v-9.766Zm36.407-2.087h-7.041V89.85h7.116v-2.087h-4.794v-2.908h4.27V82.77h-4.27v-2.758h4.72v-2.087Zm4.795 0h7.041v2.087H65.28v2.907h4.345v2.087h-4.345v4.771h-2.322V77.924Zm14.158 0h-2.322v11.852h2.322V77.924Z" clip-rule="evenodd"/></g><defs><clipPath id="a"><path fill="#fff" d="M0 0h95v90H0z"/></clipPath></defs></svg>
